assets/svg/1f1e9-1f1f0.svg

<svg xmlns="http://www.w3.org/2000/svg" viewBox="0 0 64 64" enable-background="new 0 0 64 64"><g fill="#ed4c5c"><path d="m61.18 25c-3.156-13.19-15.01-23-29.17-23-.335 0-.667.015-1 .025v22.975h30.17"/><path d="M17.011,6.023C9.993,10.084,4.777,16.902,2.84,25h14.17V6.023z"/><path d="M2.84,39c1.937,8.098,7.153,14.916,14.17,18.977V39H2.84z"/><path d="m31.01 61.975c.333.011.665.025 1 .025 14.157 0 26.02-9.81 29.17-23h-30.17v22.975"/></g><path fill="#fff" d="m61.18 25h-30.17v-22.975c-5.09.167-9.857 1.601-14 3.998v18.977h-14.171c-.537 2.247-.83 4.589-.83 7s.292 4.754.83 7h14.17v18.977c4.143 2.397 8.91 3.831 14 3.998v-22.975h30.17c.537-2.246.829-4.589.829-7s-.291-4.753-.828-7"/></svg>

<svg xmlns="http://www.w3.org/2000/svg" width="64" height="64" viewBox="0 0 64 64"><path fill="#ED4C5C" d="M61.182 25C58.026 11.81 46.168 2 32.011 2c-.335 0-.667.015-1 .025V25h30.171zM17.011 6.023C9.993 10.084 4.777 16.902 2.84 25h14.17V6.023zM2.84 39c1.937 8.098 7.153 14.916 14.17 18.977V39H2.84zM31.011 61.975c.333.011.665.025 1 .025 14.157 0 26.016-9.81 29.171-23H31.011v22.975z"/><path fill="#FFF" d="M61.182 25H31.011V2.025a29.833 29.833 0 0 0-14 3.998V25H2.84c-.537 2.247-.83 4.589-.83 7s.292 4.754.83 7h14.17v18.977a29.833 29.833 0 0 0 14 3.998V39h30.171c.537-2.246.829-4.589.829-7s-.291-4.753-.828-7z"/></svg>
